dist/img/svg/ic_pencil.svg

<svg width="15" height="16" viewBox="0 0 15 16" fill="none" xmlns="http://www.w3.org/2000/svg">
<path d="M14.6931 2.15835L12.8542 0.321376C12.4457 -0.0866989 11.7813 -0.086406 11.3731 0.321962L1.54192 10.1577C1.23471 10.4646 1.00011 10.8446 0.863494 11.2566L0.854735 11.283L0 15.0146L3.73491 14.1615L3.76127 14.1527C4.17365 14.0163 4.55399 13.7821 4.86154 13.4749L14.6937 3.6383C14.8913 3.44055 15.0001 3.1777 15 2.89818C14.9999 2.61872 14.8909 2.35595 14.6931 2.15835ZM1.55883 13.4567L1.90793 11.9326L3.08472 13.1081L1.55883 13.4567ZM4.1566 12.5229L2.49424 10.8622L10.6207 2.73212L12.283 4.39278L4.1566 12.5229ZM13.1113 3.56415L11.4489 1.90349L12.114 1.23807L13.7764 2.89873L13.1113 3.56415Z" fill="#B3B3B3"/>
</svg>

<svg width="15" height="16" viewBox="0 0 15 16" fill="none" xmlns="http://www.w3.org/2000/svg"><path d="M14.693 2.158L12.854.321a1.049 1.049 0 00-1.48.001l-9.832 9.836a2.812 2.812 0 00-.679 1.099l-.008.026L0 15.015l3.735-.854.026-.008c.413-.137.793-.37 1.1-.678l9.833-9.837a1.04 1.04 0 00.306-.74c0-.28-.11-.542-.307-.74zM1.56 13.457l.349-1.524 1.177 1.175-1.526.349zm2.598-.934l-1.663-1.66 8.127-8.13 1.662 1.66-8.126 8.13zm8.954-8.959l-1.662-1.66.665-.666 1.662 1.66-.665.666z" fill="#B3B3B3"/></svg>
